svgs/1F935-1F3FD-200D-2642-FE0F.svg

<svg xmlns="http://www.w3.org/2000/svg" xmlns:xlink="http://www.w3.org/1999/xlink" preserveAspectRatio="none" viewBox="0 0 72 72"><defs><g id="a"><path fill="#020202" d="M63 72v-.35Q63 59 45.4 55.7q-.15 0-.35-.05 2.3 1.55 4.6 4.4 1.5 1.85 2.4 3.4L48.4 66.2l4.3 2.85L51.45 72H63M21.75 60.05q2.2-2.75 4.5-4.25Q9 59.15 9 71.65V72h10.95l-1.2-2.95 4.3-2.85-3.65-2.75q.9-1.55 2.35-3.4z"/><path fill="#FFF" d="M29.8 56.4l-1.25 1.4q-1.25 1.9-1.3 4.3-.1 3.2 1.5 9.9h13.9q1.65-6.7 1.55-9.9-.05-2.4-1.3-4.3l-1.25-1.4-5.95-1.15-5.9 1.15z"/><path fill="#444" d="M39.1 54.35q-2.35-.15-3.4-.1-1-.05-3.4.1-2.9.15-4.5.5-.75.4-1.55.95-2.3 1.5-4.5 4.25-1.45 1.85-2.35 3.4l3.65 2.75-4.3 2.85 1.2 2.95h8.8q-1.6-6.7-1.5-9.9.05-2.4 1.3-4.3l1.25-1.4 5.9-1.15 5.95 1.15 1.25 1.4q1.25 1.9 1.3 4.3.1 3.2-1.55 9.9h8.8l1.25-2.95-4.3-2.85 3.65-2.75q-.9-1.55-2.4-3.4-2.3-2.85-4.6-4.4-.7-.5-1.45-.8-1.55-.35-4.5-.5z"/></g><path id="b" fill="#99674F" d="M35.7 62.6q2.55 0 4.25-1.8 1.7-1.8 1.7-4.4v-5.25H29.8v5.25q0 2.6 1.65 4.4 1.7 1.8 4.25 1.8z"/><path id="c" fill="#99674F" d="M106.9 66.05h-3.6v20.3q4.75 0 7.85-2.4 3.6-2.8 3.6-8.05 0-5.3-3.9-8.1l-3.95-1.75z"/><path id="d" fill="#99674F" d="M24.7 66.05h-3.65l-3.9 1.75q-3.95 2.8-3.95 8.1 0 5.25 3.6 8.05 3.1 2.4 7.9 2.4v-20.3z"/><path id="e" fill="#CC9970" d="M106.75 73.8q0-30.45-8.65-45.45Q87.85 10.6 64 10.6q-23.9 0-34.15 17.75-8.65 15-8.65 45.45 0 25.9 14.6 38.45Q47.05 122 64 122q16.8 0 28.1-9.65 14.65-12.55 14.65-38.55z"/><path id="f" fill="#444" d="M40.15 72.35q-1.7 2-1.7 4.85 0 2.9 1.7 4.9 1.65 2 4.05 2 2.35 0 4.05-2 1.65-2.05 1.65-4.9 0-2.85-1.65-4.85-1.7-2.05-4.05-2.05-2.4 0-4.05 2.05z"/><path id="g" fill="#444" d="M87.85 72.35q-1.7-2.05-4.05-2.05-2.4 0-4.05 2.05-1.7 2-1.7 4.85 0 2.85 1.7 4.9 1.65 2 4.05 2 2.35 0 4.05-2 1.65-2 1.65-4.9 0-2.85-1.65-4.85z"/><path id="h" fill="#513F35" d="M63.95 108.75q4.9 0 9-2.15 3.2-1.7 4.5-3.7.7-1.05.35-1.7-.35-.65-1.45-.65H51.6q-1.1 0-1.45.65-.35.65.35 1.7 1.3 2 4.5 3.7 4.1 2.15 8.95 2.15z"/><path id="i" fill="#99674F" d="M58 90q-.65-.15-.9.3-.3.4-.05.9.7 1.15 2.4 2.2 2.2 1.35 4.55 1.35 2.35 0 4.5-1.35 1.7-1.05 2.4-2.2.25-.5 0-.9-.3-.45-.95-.3-3.15.9-5.95.9-2.85 0-6-.9z"/><path id="j" fill="#6D4C41" d="M57.2 19.2q-.35-4.8-4.4-8.4-5.6-4.85-16.4-5.05h-.8q-10.85.2-16.4 5.05-4.1 3.6-4.35 8.4-.05.35-.05.65V31.1q.25-.2.75-.55.3-.3.7-.5l.35-.15.8 5.4q4.45-6.95 5.7-14.55 3.5 2.35 6.45 3.3 2.9 1 6.05.95h.8q5.2-.05 9.55-.55l3.15-.35q.1 0 .15.1l5.35 11.1.8-5.4.35.15q.4.2.7.45l.75.6V19.85v-.65z"/><path id="k" fill="#020202" d="M75.95 110.55q.15-2.7.1-3.65-.1-1.65-1.1-2.05-1.25-.45-2.8.2-.75.25-2.3 1.25-1.5.95-4.5 2.8-.75.4-.85 1.5-.15 1.05.3 1.75.65 1 4.65 2.65.95.4 2.95 1.3 1.75.6 2.85.1.8-.35.85-1.85-.15-2.3-.15-4z"/><path id="l" fill="#444" d="M73.25 108.85q0-.2-1.15-.1-1.2.1-2.75.45-3.9.8-3.8 1.2.1.45 3.9-.35 3.9-.8 3.8-1.2z"/><path id="m" fill="#444" d="M73.3 112.8q0-.4-3.85-.95-1.6-.25-2.75-.3-1.15-.05-1.15.15-.1.45 3.8 1 3.85.55 3.95.1z"/><path id="n" fill="#020202" d="M62.5 110.6q-.15-1.1-.9-1.5-3-1.85-4.5-2.8-1.55-1-2.3-1.25-1.55-.65-2.8-.2-1 .4-1.1 2.05-.05.95.1 3.65 0 1.7-.15 4 .05 1.5.85 1.85 1.1.5 2.85-.1 1-.35 3-1.3 4-1.7 4.65-2.65.4-.7.3-1.75z"/><path id="o" fill="#444" d="M57.6 109.2q-3.8-.8-3.9-.35-.1.4 3.8 1.2 3.8.8 3.9.35.1-.4-3.8-1.2z"/><path id="p" fill="#444" d="M57.5 111.85q-3.85.55-3.85.95.1.45 3.95-.1t3.85-1q-.05-.2-1.2-.15-1.15.05-2.75.3z"/><path id="q" fill="#020202" d="M37.65 62.6q0-.9-.45-1.4-.5-.55-1.5-.55-1.9 0-1.9 1.95 0 .8.55 1.3.55.45 1.35.45.85 0 1.35-.45.6-.5.6-1.3z"/><path id="r" fill="#444" d="M63.5 117.25q-.65 0-1.15.5-.45.45-.45 1.1 0 .7.45 1.15.5.45 1.15.45.65 0 1.1-.45.45-.5.45-1.15 0-.65-.45-1.1-.45-.5-1.1-.5z"/><path id="s" fill="#444" d="M63.5 122.75q-.65 0-1.15.45-.45.5-.45 1.15 0 .65.45 1.1.5.45 1.15.45.65 0 1.1-.45.45-.45.45-1.1 0-.65-.45-1.15-.45-.45-1.1-.45z"/></defs><use xlink:href="#a"/><use xlink:href="#b"/><use transform="matrix(.43608 0 0 .43584 8.05 .8)" xlink:href="#c"/><use transform="matrix(.43608 0 0 .43584 8.05 .8)" xlink:href="#d"/><use transform="matrix(.4362 0 0 .43594 8.05 1.15)" xlink:href="#e"/><use transform="matrix(.4362 0 0 .43594 8.05 1.15)" xlink:href="#f"/><use transform="matrix(.4362 0 0 .43594 8.05 1.15)" xlink:href="#g"/><use transform="matrix(.4362 0 0 .43594 8.05 1.15)" xlink:href="#h"/><use transform="matrix(.4362 0 0 .43594 8.05 1.15)" xlink:href="#i"/><use xlink:href="#j"/><use transform="matrix(.56247 0 0 .56247 0 .1)" xlink:href="#k"/><use transform="matrix(.56247 0 0 .56247 0 .1)" xlink:href="#l"/><use transform="matrix(.56247 0 0 .56247 0 .1)" xlink:href="#m"/><use transform="matrix(.56247 0 0 .56247 0 .1)" xlink:href="#n"/><use transform="matrix(.56247 0 0 .56247 0 .1)" xlink:href="#o"/><use transform="matrix(.56247 0 0 .56247 0 .1)" xlink:href="#p"/><use xlink:href="#q"/><use transform="scale(.5625)" xlink:href="#r"/><use transform="scale(.5625)" xlink:href="#s"/></svg>

<svg xmlns="http://www.w3.org/2000/svg" version="1.1" xmlns:xlink="http://www.w3.org/1999/xlink" preserveAspectRatio="none" x="0px" y="0px" width="72px" height="72px" viewBox="0 0 72 72">
<defs>
<g id="Layer0_0_MEMBER_0_MEMBER_0_MEMBER_0_FILL">
<path fill="#020202" stroke="none" d="
M 63 72
L 63 71.65
Q 63 59 45.4 55.7 45.25 55.7 45.05 55.65 47.35 57.2 49.65 60.05 51.15 61.9 52.05 63.45
L 48.4 66.2 52.7 69.05 51.45 72 63 72
M 21.75 60.05
Q 23.95 57.3 26.25 55.8 9 59.15 9 71.65
L 9 72 19.95 72 18.75 69.05 23.05 66.2 19.4 63.45
Q 20.3 61.9 21.75 60.05 Z"/>

<path fill="#FFFFFF" stroke="none" d="
M 29.8 56.4
L 28.55 57.8
Q 27.3 59.7 27.25 62.1 27.15 65.3 28.75 72
L 42.65 72
Q 44.3 65.3 44.2 62.1 44.15 59.7 42.9 57.8
L 41.65 56.4 35.7 55.25 29.8 56.4 Z"/>

<path fill="#444444" stroke="none" d="
M 39.1 54.35
Q 36.75 54.2 35.7 54.25 34.7 54.2 32.3 54.35 29.4 54.5 27.8 54.85 27.05 55.25 26.25 55.8 23.95 57.3 21.75 60.05 20.3 61.9 19.4 63.45
L 23.05 66.2 18.75 69.05 19.95 72 28.75 72
Q 27.15 65.3 27.25 62.1 27.3 59.7 28.55 57.8
L 29.8 56.4 35.7 55.25 41.65 56.4 42.9 57.8
Q 44.15 59.7 44.2 62.1 44.3 65.3 42.65 72
L 51.45 72 52.7 69.05 48.4 66.2 52.05 63.45
Q 51.15 61.9 49.65 60.05 47.35 57.2 45.05 55.65 44.35 55.15 43.6 54.85 42.05 54.5 39.1 54.35 Z"/>
</g>

<g id="Layer0_0_MEMBER_0_MEMBER_0_MEMBER_0_MEMBER_0_FILL">
<path fill="#99674F" stroke="none" d="
M 35.7 62.6
Q 38.25 62.6 39.95 60.8 41.65 59 41.65 56.4
L 41.65 51.15 29.8 51.15 29.8 56.4
Q 29.8 59 31.45 60.8 33.15 62.6 35.7 62.6 Z"/>
</g>

<g id="Layer0_0_MEMBER_0_MEMBER_0_MEMBER_0_MEMBER_1_MEMBER_0_MEMBER_0_FILL">
<path fill="#99674F" stroke="none" d="
M 106.9 66.05
L 103.3 66.05 103.3 86.35
Q 108.05 86.35 111.15 83.95 114.75 81.15 114.75 75.9 114.75 70.6 110.85 67.8
L 106.9 66.05 Z"/>
</g>

<g id="Layer0_0_MEMBER_0_MEMBER_0_MEMBER_0_MEMBER_1_MEMBER_0_MEMBER_1_FILL">
<path fill="#99674F" stroke="none" d="
M 24.7 66.05
L 21.05 66.05 17.15 67.8
Q 13.2 70.6 13.2 75.9 13.2 81.15 16.8 83.95 19.9 86.35 24.7 86.35
L 24.7 66.05 Z"/>
</g>

<g id="Layer0_0_MEMBER_0_MEMBER_0_MEMBER_0_MEMBER_1_MEMBER_1_FILL">
<path fill="#CC9970" stroke="none" d="
M 106.75 73.8
Q 106.75 43.35 98.1 28.35 87.85 10.6 64 10.6 40.1 10.6 29.85 28.35 21.2 43.35 21.2 73.8 21.2 99.7 35.8 112.25 47.05 122 64 122 80.8 122 92.1 112.35 106.75 99.8 106.75 73.8 Z"/>
</g>

<g id="Layer0_0_MEMBER_0_MEMBER_0_MEMBER_0_MEMBER_1_MEMBER_2_FILL">
<path fill="#444444" stroke="none" d="
M 40.15 72.35
Q 38.45 74.35 38.45 77.2 38.45 80.1 40.15 82.1 41.8 84.1 44.2 84.1 46.55 84.1 48.25 82.1 49.9 80.05 49.9 77.2 49.9 74.35 48.25 72.35 46.55 70.3 44.2 70.3 41.8 70.3 40.15 72.35 Z"/>
</g>

<g id="Layer0_0_MEMBER_0_MEMBER_0_MEMBER_0_MEMBER_1_MEMBER_3_FILL">
<path fill="#444444" stroke="none" d="
M 87.85 72.35
Q 86.15 70.3 83.8 70.3 81.4 70.3 79.75 72.35 78.05 74.35 78.05 77.2 78.05 80.05 79.75 82.1 81.4 84.1 83.8 84.1 86.15 84.1 87.85 82.1 89.5 80.1 89.5 77.2 89.5 74.35 87.85 72.35 Z"/>
</g>

<g id="Layer0_0_MEMBER_0_MEMBER_0_MEMBER_0_MEMBER_1_MEMBER_4_FILL">
<path fill="#513F35" stroke="none" d="
M 63.95 108.75
Q 68.85 108.75 72.95 106.6 76.15 104.9 77.45 102.9 78.15 101.85 77.8 101.2 77.45 100.55 76.35 100.55
L 51.6 100.55
Q 50.5 100.55 50.15 101.2 49.8 101.85 50.5 102.9 51.8 104.9 55 106.6 59.1 108.75 63.95 108.75 Z"/>
</g>

<g id="Layer0_0_MEMBER_0_MEMBER_0_MEMBER_0_MEMBER_1_MEMBER_5_FILL">
<path fill="#99674F" stroke="none" d="
M 58 90
Q 57.35 89.85 57.1 90.3 56.8 90.7 57.05 91.2 57.75 92.35 59.45 93.4 61.65 94.75 64 94.75 66.35 94.75 68.5 93.4 70.2 92.35 70.9 91.2 71.15 90.7 70.9 90.3 70.6 89.85 69.95 90 66.8 90.9 64 90.9 61.15 90.9 58 90 Z"/>
</g>

<g id="Layer0_0_MEMBER_0_MEMBER_0_MEMBER_0_MEMBER_1_MEMBER_6_FILL">
<path fill="#6D4C41" stroke="none" d="
M 57.2 19.2
Q 56.85 14.4 52.8 10.8 47.2 5.95 36.4 5.75
L 35.6 5.75
Q 24.75 5.95 19.2 10.8 15.1 14.4 14.85 19.2 14.8 19.55 14.8 19.85
L 14.8 31.1
Q 15.05 30.9 15.55 30.55 15.85 30.25 16.25 30.05
L 16.6 29.9 17.4 35.3
Q 21.85 28.35 23.1 20.75 26.6 23.1 29.55 24.05 32.45 25.05 35.6 25
L 36.4 25
Q 41.6 24.95 45.95 24.45
L 49.1 24.1
Q 49.2 24.1 49.25 24.2
L 54.6 35.3 55.4 29.9 55.75 30.05
Q 56.15 30.25 56.45 30.5 56.95 30.9 57.2 31.1
L 57.2 19.85
Q 57.2 19.55 57.2 19.2 Z"/>
</g>

<g id="Layer0_0_MEMBER_0_MEMBER_0_MEMBER_1_MEMBER_0_MEMBER_0_MEMBER_0_FILL">
<path fill="#020202" stroke="none" d="
M 75.95 110.55
Q 76.1 107.85 76.05 106.9 75.95 105.25 74.95 104.85 73.7 104.4 72.15 105.05 71.4 105.3 69.85 106.3 68.35 107.25 65.35 109.1 64.6 109.5 64.5 110.6 64.35 111.65 64.8 112.35 65.45 113.35 69.45 115 70.4 115.4 72.4 116.3 74.15 116.9 75.25 116.4 76.05 116.05 76.1 114.55 75.95 112.25 75.95 110.55 Z"/>
</g>

<g id="Layer0_0_MEMBER_0_MEMBER_0_MEMBER_1_MEMBER_0_MEMBER_0_MEMBER_1_FILL">
<path fill="#444444" stroke="none" d="
M 73.25 108.85
Q 73.25 108.65 72.1 108.75 70.9 108.85 69.35 109.2 65.45 110 65.55 110.4 65.65 110.85 69.45 110.05 73.35 109.25 73.25 108.85 Z"/>
</g>

<g id="Layer0_0_MEMBER_0_MEMBER_0_MEMBER_1_MEMBER_0_MEMBER_0_MEMBER_2_FILL">
<path fill="#444444" stroke="none" d="
M 73.3 112.8
Q 73.3 112.4 69.45 111.85 67.85 111.6 66.7 111.55 65.55 111.5 65.55 111.7 65.45 112.15 69.35 112.7 73.2 113.25 73.3 112.8 Z"/>
</g>

<g id="Layer0_0_MEMBER_0_MEMBER_0_MEMBER_1_MEMBER_0_MEMBER_1_MEMBER_0_FILL">
<path fill="#020202" stroke="none" d="
M 62.5 110.6
Q 62.35 109.5 61.6 109.1 58.6 107.25 57.1 106.3 55.55 105.3 54.8 105.05 53.25 104.4 52 104.85 51 105.25 50.9 106.9 50.85 107.85 51 110.55 51 112.25 50.85 114.55 50.9 116.05 51.7 116.4 52.8 116.9 54.55 116.3 55.55 115.95 57.55 115 61.55 113.3 62.2 112.35 62.6 111.65 62.5 110.6 Z"/>
</g>

<g id="Layer0_0_MEMBER_0_MEMBER_0_MEMBER_1_MEMBER_0_MEMBER_1_MEMBER_1_FILL">
<path fill="#444444" stroke="none" d="
M 57.6 109.2
Q 53.8 108.4 53.7 108.85 53.6 109.25 57.5 110.05 61.3 110.85 61.4 110.4 61.5 110 57.6 109.2 Z"/>
</g>

<g id="Layer0_0_MEMBER_0_MEMBER_0_MEMBER_1_MEMBER_0_MEMBER_1_MEMBER_2_FILL">
<path fill="#444444" stroke="none" d="
M 57.5 111.85
Q 53.65 112.4 53.65 112.8 53.75 113.25 57.6 112.7 61.45 112.15 61.45 111.7 61.4 111.5 60.25 111.55 59.1 111.6 57.5 111.85 Z"/>
</g>

<g id="Layer0_0_MEMBER_0_MEMBER_0_MEMBER_1_MEMBER_1_FILL">
<path fill="#020202" stroke="none" d="
M 37.65 62.6
Q 37.65 61.7 37.2 61.2 36.7 60.65 35.7 60.65 33.8 60.65 33.8 62.6 33.8 63.4 34.35 63.9 34.9 64.35 35.7 64.35 36.55 64.35 37.05 63.9 37.65 63.4 37.65 62.6 Z"/>
</g>

<g id="Layer0_0_MEMBER_0_MEMBER_1_FILL">
<path fill="#444444" stroke="none" d="
M 63.5 117.25
Q 62.85 117.25 62.35 117.75 61.9 118.2 61.9 118.85 61.9 119.55 62.35 120 62.85 120.45 63.5 120.45 64.15 120.45 64.6 120 65.05 119.5 65.05 118.85 65.05 118.2 64.6 117.75 64.15 117.25 63.5 117.25 Z"/>
</g>

<g id="Layer0_0_MEMBER_0_MEMBER_2_FILL">
<path fill="#444444" stroke="none" d="
M 63.5 122.75
Q 62.85 122.75 62.35 123.2 61.9 123.7 61.9 124.35 61.9 125 62.35 125.45 62.85 125.9 63.5 125.9 64.15 125.9 64.6 125.45 65.05 125 65.05 124.35 65.05 123.7 64.6 123.2 64.15 122.75 63.5 122.75 Z"/>
</g>
</defs>

<g id="Layer_1">
<g transform="matrix( 1, 0, 0, 1, 0,0) ">
<use xlink:href="#Layer0_0_MEMBER_0_MEMBER_0_MEMBER_0_FILL"/>
</g>

<g transform="matrix( 1, 0, 0, 1, 0,0) ">
<use xlink:href="#Layer0_0_MEMBER_0_MEMBER_0_MEMBER_0_MEMBER_0_FILL"/>
</g>

<g transform="matrix( 0.4360809326171875, 0, 0, 0.4358367919921875, 8.05,0.8) ">
<use xlink:href="#Layer0_0_MEMBER_0_MEMBER_0_MEMBER_0_MEMBER_1_MEMBER_0_MEMBER_0_FILL"/>
</g>

<g transform="matrix( 0.4360809326171875, 0, 0, 0.4358367919921875, 8.05,0.8) ">
<use xlink:href="#Layer0_0_MEMBER_0_MEMBER_0_MEMBER_0_MEMBER_1_MEMBER_0_MEMBER_1_FILL"/>
</g>

<g transform="matrix( 0.4362030029296875, 0, 0, 0.435943603515625, 8.05,1.15) ">
<use xlink:href="#Layer0_0_MEMBER_0_MEMBER_0_MEMBER_0_MEMBER_1_MEMBER_1_FILL"/>
</g>

<g transform="matrix( 0.4362030029296875, 0, 0, 0.435943603515625, 8.05,1.15) ">
<use xlink:href="#Layer0_0_MEMBER_0_MEMBER_0_MEMBER_0_MEMBER_1_MEMBER_2_FILL"/>
</g>

<g transform="matrix( 0.4362030029296875, 0, 0, 0.435943603515625, 8.05,1.15) ">
<use xlink:href="#Layer0_0_MEMBER_0_MEMBER_0_MEMBER_0_MEMBER_1_MEMBER_3_FILL"/>
</g>

<g transform="matrix( 0.4362030029296875, 0, 0, 0.435943603515625, 8.05,1.15) ">
<use xlink:href="#Layer0_0_MEMBER_0_MEMBER_0_MEMBER_0_MEMBER_1_MEMBER_4_FILL"/>
</g>

<g transform="matrix( 0.4362030029296875, 0, 0, 0.435943603515625, 8.05,1.15) ">
<use xlink:href="#Layer0_0_MEMBER_0_MEMBER_0_MEMBER_0_MEMBER_1_MEMBER_5_FILL"/>
</g>

<g transform="matrix( 1, 0, 0, 1, 0,0) ">
<use xlink:href="#Layer0_0_MEMBER_0_MEMBER_0_MEMBER_0_MEMBER_1_MEMBER_6_FILL"/>
</g>

<g transform="matrix( 0.562469482421875, 0, 0, 0.562469482421875, 0,0.1) ">
<use xlink:href="#Layer0_0_MEMBER_0_MEMBER_0_MEMBER_1_MEMBER_0_MEMBER_0_MEMBER_0_FILL"/>
</g>

<g transform="matrix( 0.562469482421875, 0, 0, 0.562469482421875, 0,0.1) ">
<use xlink:href="#Layer0_0_MEMBER_0_MEMBER_0_MEMBER_1_MEMBER_0_MEMBER_0_MEMBER_1_FILL"/>
</g>

<g transform="matrix( 0.562469482421875, 0, 0, 0.562469482421875, 0,0.1) ">
<use xlink:href="#Layer0_0_MEMBER_0_MEMBER_0_MEMBER_1_MEMBER_0_MEMBER_0_MEMBER_2_FILL"/>
</g>

<g transform="matrix( 0.562469482421875, 0, 0, 0.562469482421875, 0,0.1) ">
<use xlink:href="#Layer0_0_MEMBER_0_MEMBER_0_MEMBER_1_MEMBER_0_MEMBER_1_MEMBER_0_FILL"/>
</g>

<g transform="matrix( 0.562469482421875, 0, 0, 0.562469482421875, 0,0.1) ">
<use xlink:href="#Layer0_0_MEMBER_0_MEMBER_0_MEMBER_1_MEMBER_0_MEMBER_1_MEMBER_1_FILL"/>
</g>

<g transform="matrix( 0.562469482421875, 0, 0, 0.562469482421875, 0,0.1) ">
<use xlink:href="#Layer0_0_MEMBER_0_MEMBER_0_MEMBER_1_MEMBER_0_MEMBER_1_MEMBER_2_FILL"/>
</g>

<g transform="matrix( 1, 0, 0, 1, 0,0) ">
<use xlink:href="#Layer0_0_MEMBER_0_MEMBER_0_MEMBER_1_MEMBER_1_FILL"/>
</g>

<g transform="matrix( 0.5625, 0, 0, 0.5625, 0,0) ">
<use xlink:href="#Layer0_0_MEMBER_0_MEMBER_1_FILL"/>
</g>

<g transform="matrix( 0.5625, 0, 0, 0.5625, 0,0) ">
<use xlink:href="#Layer0_0_MEMBER_0_MEMBER_2_FILL"/>
</g>
</g>
</svg>
